X: 2 % start of header
T:Torus:Taurus Tune
T:26 of 100,000,000,000,000
C: (Sid.)
O: Jeff Minter
R:Procedurally Generated
L: 1/8
K: D % scale: C major
V:1 name="Voice 1"
^A,16    |     |     |     | ^A,16    |     |     |     | ^G,16    |     |     |     | D16    |     |     |     | :|
V:2 name="Voice 2"
^D4    | ^D4    | ^C4    | G4    | ^D4    | ^D4    | ^C4    | G4    | ^C4    | ^C4    | B,4    | F4    | G4    | G4    | F4    | B4    | :|
V:3 name="Voice 3"
^G1^G1^F1c1|^G1^G1^F1c1|^F1^F1E1^A1|c1c1^A1e1|^G1^G1^F1c1|^G1^G1^F1c1|^F1^F1E1^A1|c1c1^A1e1|^F1^F1E1^A1|^F1^F1E1^A1|E1E1D1^G1|^A1^A1^G1d1|c1c1^A1e1|c1c1^A1e1|^A1^A1^G1d1|e1e1d1^g1|:|
